docs/.gitbook/assets/icon-stars-16@dark.svg

<svg width="32" height="32" viewBox="0 0 16 16" fill="none" xmlns="http://www.w3.org/2000/svg">
<rect x="0" y="0" width="16" height="16" fill="#181c1f"/>
<path fill-rule="evenodd" clip-rule="evenodd" d="M4 1.75C4 1.75 4.00007 4 1.75 4C4 4 4 6.25 4 6.25C4 6.25 4 4 6.25 4C4 4 4 1.75 4 1.75ZM10 5.75C10 5.75 10.0001 10 5.75 10C10 10 10 14.25 10 14.25C10 14.25 10 10 14.25 10C10 10 10 5.75 10 5.75Z" fill="#fff"/>
<path d="M1.75 3.25C1.33579 3.25 1 3.58579 1 4C1 4.41421 1.33579 4.75 1.75 4.75V3.25ZM4 1.75L4.75 1.74998C4.74999 1.33577 4.4142 0.999994 3.99999 1C3.58578 1.00001 3.25 1.33579 3.25 1.75L4 1.75ZM3.25 6.25C3.25 6.66421 3.58579 7 4 7C4.41421 7 4.75 6.66421 4.75 6.25H3.25ZM6.25 4.75C6.66421 4.75 7 4.41421 7 4C7 3.58579 6.66421 3.25 6.25 3.25V4.75ZM5.75 9.25C5.33579 9.25 5 9.58579 5 10C5 10.4142 5.33579 10.75 5.75 10.75V9.25ZM10 5.75L10.75 5.74998C10.75 5.33577 10.4142 4.99999 9.99999 5C9.58578 5.00001 9.25 5.33579 9.25 5.75H10ZM9.25 14.25C9.25 14.6642 9.58579 15 10 15C10.4142 15 10.75 14.6642 10.75 14.25H9.25ZM14.25 10.75C14.6642 10.75 15 10.4142 15 10C15 9.58579 14.6642 9.25 14.25 9.25V10.75ZM1.75 4.75C2.44375 4.75 3.01392 4.57441 3.46683 4.27248C3.91505 3.97367 4.20449 3.58063 4.3896 3.2104C4.57324 2.84311 4.66132 2.4849 4.70465 2.22484C4.72662 2.09304 4.73789 1.98156 4.7437 1.90009C4.74662 1.85924 4.74819 1.82556 4.74904 1.80023C4.74946 1.78756 4.7497 1.77694 4.74983 1.76853C4.7499 1.76432 4.74994 1.76066 4.74997 1.75756C4.74998 1.75601 4.74999 1.7546 4.74999 1.75334C4.75 1.75271 4.75 1.75211 4.75 1.75155C4.75 1.75127 4.75 1.75088 4.75 1.75074C4.75 1.75035 4.75 1.74998 4 1.75C3.25 1.75002 3.25 1.74966 3.25 1.74931C3.25 1.74921 3.25 1.74887 3.25 1.74865C3.25 1.74823 3.25 1.74784 3.25 1.74748C3.25001 1.74676 3.25001 1.74617 3.25001 1.7457C3.25002 1.74477 3.25003 1.74433 3.25003 1.74438C3.25003 1.74448 3.24999 1.7465 3.24987 1.7503C3.24961 1.75794 3.24899 1.7726 3.24751 1.79327C3.24454 1.83485 3.23824 1.89915 3.22505 1.97828C3.19809 2.1401 3.14555 2.34439 3.04795 2.5396C2.95182 2.73187 2.81939 2.90133 2.63479 3.0244C2.45488 3.14434 2.18128 3.25 1.75 3.25V4.75ZM4 6.25C4.75 6.25 4.75 6.24962 4.75 6.24924C4.75 6.2491 4.75 6.24871 4.75 6.24843C4.75 6.24787 4.75 6.24727 4.74999 6.24664C4.74999 6.24537 4.74998 6.24397 4.74997 6.24242C4.74994 6.23932 4.7499 6.23566 4.74983 6.23145C4.7497 6.22304 4.74946 6.21242 4.74903 6.19975C4.74819 6.17442 4.74662 6.14074 4.7437 6.09988C4.73788 6.01842 4.72661 5.90694 4.70464 5.77514C4.6613 5.51508 4.57321 5.15688 4.38957 4.78959C4.20446 4.41937 3.91501 4.02633 3.46681 3.72752C3.0139 3.42559 2.44374 3.25 1.75 3.25V4.75C2.18126 4.75 2.45485 4.85566 2.63476 4.9756C2.81936 5.09867 2.95179 5.26813 3.04793 5.46041C3.14554 5.65562 3.19808 5.85992 3.22505 6.02174C3.23824 6.10087 3.24454 6.16517 3.24751 6.20676C3.24899 6.22742 3.24961 6.24208 3.24987 6.24972C3.24999 6.25352 3.25003 6.25554 3.25003 6.25564C3.25003 6.25569 3.25002 6.25525 3.25002 6.25432C3.25001 6.25385 3.25001 6.25326 3.25 6.25254C3.25 6.25218 3.25 6.25179 3.25 6.25137C3.25 6.25116 3.25 6.25081 3.25 6.25071C3.25 6.25036 3.25 6.25 4 6.25ZM6.25 3.25C5.55626 3.25 4.9861 3.42559 4.53319 3.72752C4.08499 4.02633 3.79554 4.41937 3.61043 4.78959C3.42679 5.15688 3.3387 5.51508 3.29536 5.77514C3.27339 5.90694 3.26212 6.01842 3.2563 6.09988C3.25338 6.14074 3.25181 6.17442 3.25097 6.19975C3.25054 6.21242 3.2503 6.22304 3.25017 6.23145C3.2501 6.23566 3.25006 6.23932 3.25003 6.24242C3.25002 6.24397 3.25001 6.24537 3.25001 6.24664C3.25 6.24727 3.25 6.24787 3.25 6.24843C3.25 6.24871 3.25 6.2491 3.25 6.24924C3.25 6.24962 3.25 6.25 4 6.25C4.75 6.25 4.75 6.25036 4.75 6.25071C4.75 6.25081 4.75 6.25116 4.75 6.25137C4.75 6.25179 4.75 6.25218 4.75 6.25254C4.74999 6.25326 4.74999 6.25385 4.74998 6.25432C4.74998 6.25526 4.74997 6.25569 4.74997 6.25564C4.74997 6.25554 4.75001 6.25352 4.75013 6.24972C4.75039 6.24208 4.75101 6.22742 4.75249 6.20676C4.75546 6.16517 4.76176 6.10087 4.77495 6.02174C4.80192 5.85992 4.85446 5.65562 4.95207 5.46041C5.04821 5.26813 5.18064 5.09867 5.36524 4.9756C5.54515 4.85566 5.81874 4.75 6.25 4.75V3.25ZM4 1.75C3.25 1.75 3.25 1.75038 3.25 1.75076C3.25 1.7509 3.25 1.75129 3.25 1.75157C3.25 1.75213 3.25 1.75273 3.25001 1.75336C3.25001 1.75463 3.25002 1.75603 3.25003 1.75758C3.25006 1.76068 3.2501 1.76434 3.25017 1.76855C3.2503 1.77696 3.25054 1.78758 3.25097 1.80025C3.25181 1.82558 3.25338 1.85926 3.2563 1.90011C3.26212 1.98158 3.27339 2.09306 3.29536 2.22486C3.3387 2.48492 3.42679 2.84312 3.61043 3.21041C3.79554 3.58063 4.08499 3.97367 4.53319 4.27248C4.9861 4.57441 5.55626 4.75 6.25 4.75V3.25C5.81874 3.25 5.54515 3.14434 5.36524 3.0244C5.18064 2.90133 5.04821 2.73187 4.95207 2.53959C4.85446 2.34438 4.80192 2.14008 4.77495 1.97826C4.76176 1.89913 4.75546 1.83483 4.75249 1.79324C4.75101 1.77258 4.75039 1.75792 4.75013 1.75028C4.75001 1.74648 4.74997 1.74446 4.74997 1.74436C4.74997 1.74431 4.74998 1.74474 4.74998 1.74568C4.74999 1.74615 4.74999 1.74674 4.75 1.74746C4.75 1.74782 4.75 1.74821 4.75 1.74863C4.75 1.74884 4.75 1.74919 4.75 1.74929C4.75 1.74964 4.75 1.75 4 1.75ZM5.75 10.75C6.94377 10.75 7.88895 10.4494 8.62311 9.95998C9.35257 9.47367 9.82952 8.83063 10.1396 8.2104C10.4483 7.59311 10.5988 6.9849 10.6734 6.53734C10.711 6.31179 10.7301 6.12218 10.7398 5.98603C10.7447 5.91783 10.7472 5.86267 10.7485 5.82269C10.7492 5.8027 10.7496 5.78646 10.7498 5.77426C10.7499 5.76816 10.7499 5.76307 10.75 5.75901C10.75 5.75698 10.75 5.75521 10.75 5.7537C10.75 5.75295 10.75 5.75226 10.75 5.75164C10.75 5.75133 10.75 5.75091 10.75 5.75076C10.75 5.75036 10.75 5.74998 10 5.75C9.25 5.75002 9.25 5.74967 9.25 5.74934C9.25 5.74925 9.25 5.74893 9.25 5.74875C9.25 5.74838 9.25 5.74808 9.25 5.74784C9.25001 5.74737 9.25001 5.74714 9.25001 5.74715C9.25001 5.74718 9.25 5.74818 9.24997 5.75012C9.24991 5.754 9.24975 5.76164 9.24938 5.77277C9.24864 5.79505 9.24704 5.83119 9.24361 5.8792C9.23674 5.97547 9.22262 6.1179 9.19381 6.29078C9.1356 6.6401 9.02057 7.09439 8.79797 7.5396C8.57684 7.98187 8.25692 8.40133 7.79106 8.7119C7.3299 9.01934 6.6813 9.25 5.75 9.25V10.75ZM10 14.25C10.75 14.25 10.75 14.2496 10.75 14.2492C10.75 14.2491 10.75 14.2486 10.75 14.2483C10.75 14.2477 10.75 14.247 10.75 14.2463C10.75 14.2448 10.75 14.243 10.75 14.241C10.7499 14.2369 10.7499 14.2318 10.7498 14.2257C10.7496 14.2135 10.7492 14.1973 10.7485 14.1773C10.7472 14.1373 10.7447 14.0821 10.7398 14.0139C10.7301 13.8778 10.711 13.6882 10.6734 13.4626C10.5988 13.0151 10.4482 12.4069 10.1396 11.7896C9.82946 11.1694 9.35251 10.5263 8.62306 10.04C7.8889 9.55059 6.94374 9.25 5.75 9.25V10.75C6.68126 10.75 7.32985 10.9807 7.79101 11.2881C8.25686 11.5987 8.57679 12.0181 8.79793 12.4604C9.02054 12.9056 9.13558 13.3599 9.1938 13.7092C9.22261 13.8821 9.23673 14.0245 9.24361 14.1208C9.24703 14.1688 9.24864 14.205 9.24938 14.2273C9.24975 14.2384 9.24991 14.246 9.24997 14.2499C9.25 14.2518 9.25001 14.2528 9.25001 14.2529C9.25001 14.2529 9.25001 14.2527 9.25 14.2522C9.25 14.2519 9.25 14.2516 9.25 14.2513C9.25 14.2511 9.25 14.2508 9.25 14.2507C9.25 14.2504 9.25 14.25 10 14.25ZM14.25 9.25C13.0563 9.25 12.1111 9.55059 11.3769 10.04C10.6475 10.5263 10.1705 11.1694 9.86043 11.7896C9.55179 12.4069 9.4012 13.0151 9.32661 13.4626C9.28902 13.6882 9.26993 13.8778 9.26021 14.0139C9.25534 14.0821 9.25279 14.1373 9.25145 14.1773C9.25079 14.1973 9.25042 14.2135 9.25023 14.2257C9.25013 14.2318 9.25007 14.2369 9.25004 14.241C9.25002 14.243 9.25001 14.2448 9.25001 14.2463C9.25 14.247 9.25 14.2477 9.25 14.2483C9.25 14.2486 9.25 14.2491 9.25 14.2492C9.25 14.2496 9.25 14.25 10 14.25C10.75 14.25 10.75 14.2504 10.75 14.2507C10.75 14.2508 10.75 14.2511 10.75 14.2513C10.75 14.2516 10.75 14.2519 10.75 14.2522C10.75 14.2527 10.75 14.2529 10.75 14.2529C10.75 14.2528 10.75 14.2518 10.75 14.2499C10.7501 14.246 10.7502 14.2384 10.7506 14.2273C10.7514 14.205 10.753 14.1688 10.7564 14.1208C10.7633 14.0245 10.7774 13.8821 10.8062 13.7092C10.8644 13.3599 10.9795 12.9056 11.2021 12.4604C11.4232 12.0181 11.7431 11.5987 12.209 11.2881C12.6702 10.9807 13.3187 10.75 14.25 10.75V9.25ZM10 5.75C9.25 5.75 9.25 5.75038 9.25 5.75078C9.25 5.75094 9.25 5.75135 9.25 5.75166C9.25 5.75229 9.25 5.75297 9.25001 5.75373C9.25001 5.75523 9.25002 5.757 9.25004 5.75903C9.25007 5.76309 9.25013 5.76819 9.25023 5.77429C9.25042 5.78649 9.25079 5.80272 9.25145 5.82272C9.25279 5.86269 9.25534 5.91785 9.26021 5.98605C9.26993 6.1222 9.28902 6.31181 9.32661 6.53736C9.4012 6.98492 9.55179 7.59312 9.86043 8.21041C10.1705 8.83063 10.6475 9.47367 11.3769 9.95998C12.1111 10.4494 13.0563 10.75 14.25 10.75V9.25C13.3187 9.25 12.6702 9.01934 12.209 8.7119C11.7431 8.40133 11.4232 7.98187 11.2021 7.53959C10.9795 7.09438 10.8644 6.64008 10.8062 6.29076C10.7774 6.11788 10.7633 5.97545 10.7564 5.87918C10.753 5.83117 10.7514 5.79503 10.7506 5.77274C10.7502 5.76161 10.7501 5.75398 10.75 5.7501C10.75 5.74816 10.75 5.74716 10.75 5.74713C10.75 5.74711 10.75 5.74734 10.75 5.74782C10.75 5.74806 10.75 5.74836 10.75 5.74872C10.75 5.7489 10.75 5.74922 10.75 5.74931C10.75 5.74965 10.75 5.75 10 5.75Z" fill="#fff"/>
</svg>

<svg xmlns="http://www.w3.org/2000/svg" width="32" height="32" fill="none" viewBox="0 0 16 16"><path fill="#181c1f" d="M0 0h16v16H0z"/><path fill="#fff" fill-rule="evenodd" d="M4 1.75S4 4 1.75 4C4 4 4 6.25 4 6.25S4 4 6.25 4C4 4 4 1.75 4 1.75m6 4S10 10 5.75 10C10 10 10 14.25 10 14.25S10 10 14.25 10C10 10 10 5.75 10 5.75" clip-rule="evenodd"/><path fill="#fff" d="M1.75 3.25a.75.75 0 0 0 0 1.5zM4 1.75h.75a.75.75 0 0 0-1.5 0zm-.75 4.5a.75.75 0 0 0 1.5 0zm3-1.5a.75.75 0 0 0 0-1.5zm-.5 4.5a.75.75 0 0 0 0 1.5zM10 5.75h.75a.75.75 0 1 0-1.5 0zm-.75 8.5a.75.75 0 0 0 1.5 0zm5-3.5a.75.75 0 0 0 0-1.5zm-12.5-6c.694 0 1.264-.176 1.717-.478.448-.298.737-.691.923-1.062a3.5 3.5 0 0 0 .36-1.452V1.75h-1.5v-.004.004l-.002.043q-.004.065-.023.185c-.027.162-.08.366-.177.562a1.2 1.2 0 0 1-.413.484c-.18.12-.454.226-.885.226zM4 6.25h.75v-.008a2 2 0 0 0-.006-.142 3.5 3.5 0 0 0-.354-1.31 2.7 2.7 0 0 0-.923-1.062c-.453-.302-1.023-.478-1.717-.478v1.5c.431 0 .705.106.885.226.184.123.317.292.413.484a2 2 0 0 1 .202.794v-.003zm2.25-3c-.694 0-1.264.176-1.717.478A2.7 2.7 0 0 0 3.61 4.79a3.5 3.5 0 0 0-.36 1.452v.007L4 6.25h.75v.006l.002-.05a2 2 0 0 1 .2-.746c.096-.192.229-.361.413-.484.18-.12.454-.226.885-.226zM4 1.75h-.75v.008a2 2 0 0 0 .006.142 3.5 3.5 0 0 0 .354 1.31c.186.37.475.764.923 1.062.453.302 1.023.478 1.717.478v-1.5c-.431 0-.705-.106-.885-.226a1.2 1.2 0 0 1-.413-.484 2 2 0 0 1-.202-.794v.003zm1.75 9c1.194 0 2.139-.3 2.873-.79a4.5 4.5 0 0 0 1.517-1.75 6 6 0 0 0 .533-1.673 6 6 0 0 0 .077-.763v-.023L10 5.75h-.75v-.002.025l-.006.106a5 5 0 0 1-.05.412c-.058.35-.173.803-.396 1.249a3 3 0 0 1-1.007 1.172c-.461.307-1.11.538-2.041.538zm4.25 3.5h.75v-.024a3 3 0 0 0-.01-.212 6 6 0 0 0-.067-.551 6 6 0 0 0-.533-1.673 4.5 4.5 0 0 0-1.517-1.75c-.734-.49-1.68-.79-2.873-.79v1.5c.931 0 1.58.23 2.041.538.466.31.786.73 1.007 1.172.223.446.338.9.396 1.25a5 5 0 0 1 .056.543v-.002zm4.25-5c-1.194 0-2.139.3-2.873.79a4.5 4.5 0 0 0-1.517 1.75 6 6 0 0 0-.533 1.673 6 6 0 0 0-.077.783v.003l.75.001h.75v.002-.025l.006-.106c.007-.097.021-.239.05-.412a4.5 4.5 0 0 1 .396-1.249 3 3 0 0 1 1.007-1.172c.461-.307 1.11-.538 2.041-.538zM10 5.75h-.75v.009l.001.064q.002.06.01.163a6 6 0 0 0 .6 2.224 4.5 4.5 0 0 0 1.516 1.75c.734.49 1.68.79 2.873.79v-1.5c-.931 0-1.58-.23-2.041-.538a3 3 0 0 1-1.007-1.172 4.5 4.5 0 0 1-.396-1.25 5 5 0 0 1-.055-.517l-.001-.023v-.003.002z"/></svg>
